icons/device-laptop-outline.svg

<svg xmlns="http://www.w3.org/2000/svg" width="24" height="24" viewBox="0 0 24 24">
  <path d="M20.9999919,15.004079 L22.4213573,16.7272341 C23.1242865,17.5792695 23.0034121,18.8398174 22.1513767,19.5427466 C21.793089,19.8383339 21.343091,20 20.8786108,20 L20.8786108,20 L3.12138922,20 C2.01681972,20 1.12138922,19.1045695 1.12138922,18 C1.12138922,17.5355198 1.28305535,17.0855217 1.57864266,16.7272341 L1.57864266,16.7272341 L2.99938922,15.004 L3,7 C3,5.40231912 4.24891996,4.09633912 5.82372721,4.00509269 L6,4 L18,4 C19.6568542,4 21,5.34314575 21,7 L21,7 L20.9999919,15.004079 L20.9999919,15.004079 Z M19.228,16 L4.771,16 L3.12138922,18 L20.8786108,18 L19.228,16 Z M18,6 L6,6 C5.44771525,6 5,6.44771525 5,7 L5,7 L5,14 L19,14 L19,7 C19,6.48716416 18.6139598,6.06449284 18.1166211,6.00672773 L18.1166211,6.00672773 L18,6 Z"/>
</svg>

<svg xmlns="http://www.w3.org/2000/svg" viewBox="0 0 24 24">
  <path d="m21 15 1.42 1.73A2 2 0 0 1 20.88 20H3.12a2 2 0 0 1-1.54-3.27L3 15V7a3 3 0 0 1 2.82-3H18a3 3 0 0 1 3 3v8zm-1.77 1H4.77l-1.65 2h17.76l-1.65-2zM18 6H6a1 1 0 0 0-1 1v7h14V7a1 1 0 0 0-.88-1H18z"/>
</svg>
